X:985
T:Strawberries and Raspberries
T:Les Fraises et les Framboises
C:Traditional French-Canadian
R:Reel
S:Colin Hume's website,  colinhume.com  - chords can also be printed below the stave.
Q:1/4=112
M:2/4
%%MIDI gchord fzczfzcz
L:1/8
K:G
|: B | "G"BG GD | D2 zB | "G"BG FG | "D"A2 zc ||\
"D"cA AF | F2 zD | "D7"dc BA |1 "G"G3 :| "G"G2 ||
P:B
|: Bd | "G"G>G GG | GG zB | "Am"AG FG | Az Ac ||\
"D"F>F FF | FF zd | "D7"dc BA | "G"G2 :|

